X:5
T:"Mount Hood" by Elizabeth (Clark) Zekley  1990
D:Written on the concertina while passing Mount Hood in Washington
S:Original Tune
R:Air
O:Mount Hood, Washington
M:3/4
Q:200
F:http://larkcamp.com/meabc.txt
K:Dm
A|:d3 e d2|c<A- A2A2|d3 e f2|g<e-e2g2|a3 g e2|d3 c A2|c6-|c2 f2 e2|d3 e d2|c<A-A2A2|d3 e f2|g<e- e2 g2|a2d'2c'2|a3 g f2|g<e-e2 c2|1d4 A2:|2d2 AG FC|:D3 EF2|E<A,-A,2A,2|D3EF2|G3AG2|A2 dc de|f2 e2 d2|e2c2e2|g3 f e2|f2A2A2|e2G2G2|d2 ed cA|G2E2C2|D3EF2|E<A,-A,2A,2|B,3C D2|1D3 F EC:|2D4||
